src/lib/packages/icons/src/assets/line/location-pin-edit.svg

<svg width="24" height="24" viewBox="0 0 24 24" fill="none" xmlns="http://www.w3.org/2000/svg">
<path d="M12 2.25C7.175 2.25 3.25 6.175 3.25 11C3.25 16.118 7.94699 19.2199 11.055 21.2729L11.584 21.624C11.71 21.708 11.855 21.75 12 21.75C12.145 21.75 12.29 21.708 12.416 21.624L12.945 21.2729C16.053 19.2199 20.75 16.118 20.75 11C20.75 6.175 16.825 2.25 12 2.25ZM12.119 20.021L12 20.1001L11.881 20.021C8.87101 18.033 4.75 15.311 4.75 11C4.75 7.002 8.002 3.75 12 3.75C15.998 3.75 19.25 7.002 19.25 11C19.25 15.311 15.128 18.034 12.119 20.021ZM15.28 6.22998C14.97 5.91998 14.559 5.75 14.121 5.75C14.12 5.75 14.12 5.75 14.119 5.75C13.681 5.75 13.268 5.92193 12.959 6.23193L7.46799 11.748C7.32799 11.889 7.25 12.0791 7.25 12.2771V14.499C7.25 14.913 7.586 15.249 8 15.249H10.222C10.42 15.249 10.611 15.17 10.751 15.031L16.267 9.54004C16.578 9.23104 16.749 8.81888 16.749 8.37988C16.749 7.94088 16.579 7.52899 16.269 7.21899L15.28 6.22998ZM14.121 7.25C14.123 7.255 14.185 7.25602 14.22 7.29102L15.21 8.28101C15.244 8.31501 15.251 8.35288 15.251 8.37988C15.251 8.40688 15.244 8.44503 15.21 8.47803L14.574 9.11108L13.39 7.927L14.023 7.29102C14.056 7.25702 14.094 7.25 14.121 7.25ZM9.91299 13.75H8.75V12.5869L12.331 8.98999L13.51 10.1689L9.91299 13.75Z" fill="currentColor"/>
</svg>

<svg xmlns="http://www.w3.org/2000/svg" width="24" height="24" fill="none"><path fill="currentColor" d="M12 2.25c-4.825 0-8.75 3.925-8.75 8.75 0 5.118 4.697 8.22 7.805 10.273l.529.351a.75.75 0 0 0 .832 0l.529-.351C16.053 19.22 20.75 16.118 20.75 11c0-4.825-3.925-8.75-8.75-8.75Zm.119 17.771-.119.08-.119-.08C8.871 18.033 4.75 15.311 4.75 11c0-3.998 3.252-7.25 7.25-7.25s7.25 3.252 7.25 7.25c0 4.311-4.122 7.034-7.131 9.021ZM15.28 6.23c-.31-.31-.721-.48-1.159-.48h-.002a1.63 1.63 0 0 0-1.16.482l-5.491 5.516a.75.75 0 0 0-.218.53v2.221c0 .414.336.75.75.75h2.222a.753.753 0 0 0 .529-.218l5.516-5.491c.311-.309.482-.721.482-1.16 0-.44-.17-.851-.48-1.161l-.989-.989Zm-1.159 1.02c.002.005.064.006.099.041l.99.99a.136.136 0 0 1 .041.099.133.133 0 0 1-.041.098l-.636.633-1.184-1.184.633-.636a.133.133 0 0 1 .098-.041Zm-4.208 6.5H8.75v-1.163l3.581-3.597 1.179 1.179-3.597 3.581Z"/></svg>
